icons/Adwaita-purple/scalable/places/folder-publicshare.svg

<?xml version="1.0" encoding="UTF-8"?>
<svg height="128px" viewBox="0 0 128 128" width="128px" xmlns="http://www.w3.org/2000/svg" xmlns:xlink="http://www.w3.org/1999/xlink">
    <linearGradient id="a" gradientTransform="matrix(0.45451 0 0 0.455522 -1210.292114 616.172607)" gradientUnits="userSpaceOnUse" x1="2689.251953" x2="2918.069824" y1="-1106.802979" y2="-1106.802979">
        <stop offset="0" stop-color="#62a0ea"/>
        <stop offset="0.0576991" stop-color="#afd4ff"/>
        <stop offset="0.122204" stop-color="#62a0ea"/>
        <stop offset="0.873306" stop-color="#62a0ea"/>
        <stop offset="0.955997" stop-color="#c0d5ea"/>
        <stop offset="1" stop-color="#62a0ea"/>
    </linearGradient>
    <path d="m 21.976562 12 c -5.527343 0 -9.976562 4.460938 -9.976562 10 v 86.03125 c 0 5.542969 4.449219 10 9.976562 10 h 84.042969 c 5.53125 0 9.980469 -4.457031 9.980469 -10 v -72.085938 c 0 -6.628906 -5.359375 -12 -11.972656 -12 h -46.027344 c -2.453125 0 -4.695312 -1.386718 -5.796875 -3.582031 l -1.503906 -2.992187 c -1.65625 -3.292969 -5.019531 -5.371094 -8.699219 -5.371094 z m 0 0" fill="#438de6"/>
    <path d="m 65.976562 36 c -2.746093 0 -5.226562 1.101562 -7.027343 2.890625 c -2.273438 2.253906 -5.382813 5.109375 -8.632813 5.109375 h -28.339844 c -5.527343 0 -9.976562 4.460938 -9.976562 10 v 54.03125 c 0 5.542969 4.449219 10 9.976562 10 h 84.042969 c 5.53125 0 9.980469 -4.457031 9.980469 -10 v -62.03125 c 0 -5.539062 -4.449219 -10 -9.980469 -10 z m 0 0" fill="url(#a)"/>
    <path d="m 65.976562 32 c -2.746093 0 -5.226562 1.101562 -7.027343 2.890625 c -2.273438 2.253906 -5.382813 5.109375 -8.632813 5.109375 h -28.339844 c -5.527343 0 -9.976562 4.460938 -9.976562 10 v 55.976562 c 0 5.539063 4.449219 10 9.976562 10 h 84.042969 c 5.53125 0 9.980469 -4.460937 9.980469 -10 v -63.976562 c 0 -5.539062 -4.449219 -10 -9.980469 -10 z m 0 0" fill="#a4caee"/>
    <path d="m 74 60 c -3.3125 0 -6 2.679688 -6 6 c 0 0.242188 0.023438 0.492188 0.054688 0.734375 l -9.890626 4.945313 c -1.117187 -1.078126 -2.609374 -1.679688 -4.164062 -1.679688 c -3.3125 0 -6 2.679688 -6 6 c 0 3.3125 2.6875 6 6 6 c 1.546875 -0.007812 3.039062 -0.617188 4.148438 -1.6875 l 9.90625 4.945312 c -0.03125 0.242188 -0.054688 0.492188 -0.054688 0.742188 c 0 3.3125 2.6875 6 6 6 s 6 -2.6875 6 -6 c 0 -3.320312 -2.6875 -6 -6 -6 c -1.546875 0 -3.039062 0.609375 -4.148438 1.6875 l -9.90625 -4.953125 c 0.03125 -0.242187 0.054688 -0.492187 0.054688 -0.734375 c 0 -0.25 -0.015625 -0.5 -0.046875 -0.742188 l 9.890625 -4.945312 c 1.117188 1.070312 2.609375 1.679688 4.15625 1.6875 c 3.3125 0 6 -2.6875 6 -6 c 0 -3.320312 -2.6875 -6 -6 -6 z m 0 0" fill="#438de6"/>
</svg>

<svg width="128" height="128" viewBox="0 0 128 128" fill="none" xmlns="http://www.w3.org/2000/svg">
<path d="M21.9766 12C16.4492 12 12 16.4609 12 22V108.031C12 113.574 16.4492 118.031 21.9766 118.031H106.02C111.551 118.031 116 113.574 116 108.031V35.9453C116 29.3164 110.641 23.9453 104.027 23.9453H58C55.5469 23.9453 53.3047 22.5586 52.2031 20.3633L50.6992 17.3711C49.043 14.0781 45.6797 12 42 12H21.9766Z" fill="#813D9C"/>
<path d="M65.9766 36C63.2305 36 60.75 37.1016 58.9492 38.8906C56.6758 41.1445 53.5664 44 50.3164 44H21.9766C16.4492 44 12 48.4609 12 54V108.031C12 113.574 16.4492 118.031 21.9766 118.031H106.02C111.551 118.031 116 113.574 116 108.031V46C116 40.4609 111.551 36 106.02 36H65.9766Z" fill="url(#paint0_linear_27_590)"/>
<path d="M65.9766 32C63.2305 32 60.75 33.1016 58.9492 34.8906C56.6758 37.1445 53.5664 40 50.3164 40H21.9766C16.4492 40 12 44.4609 12 50V105.977C12 111.516 16.4492 115.977 21.9766 115.977H106.02C111.551 115.977 116 111.516 116 105.977V42C116 36.4609 111.551 32 106.02 32H65.9766Z" fill="#DC8ADD"/>
<path d="M74 60C70.6875 60 68 62.6797 68 66C68 66.2422 68.0234 66.4922 68.0547 66.7344L58.1641 71.6797C57.0469 70.6016 55.5547 70 54 70C50.6875 70 48 72.6797 48 76C48 79.3125 50.6875 82 54 82C55.5469 81.9922 57.0391 81.3828 58.1484 80.3125L68.0547 85.2578C68.0234 85.5 68 85.75 68 86C68 89.3125 70.6875 92 74 92C77.3125 92 80 89.3125 80 86C80 82.6797 77.3125 80 74 80C72.4531 80 70.9609 80.6094 69.8516 81.6875L59.9453 76.7344C59.9766 76.4922 60 76.2422 60 76C60 75.75 59.9844 75.5 59.9531 75.2578L69.8438 70.3125C70.9609 71.3828 72.4531 71.9922 74 72C77.3125 72 80 69.3125 80 66C80 62.6797 77.3125 60 74 60Z" fill="#813D9C"/>
<defs>
<linearGradient id="paint0_linear_27_590" x1="11.9998" y1="112" x2="116" y2="112" gradientUnits="userSpaceOnUse">
<stop stop-color="#9141AC"/>
<stop offset="0.0576991" stop-color="#F0C2F0"/>
<stop offset="0.122204" stop-color="#9141AC"/>
<stop offset="0.873306" stop-color="#9141AC"/>
<stop offset="0.955997" stop-color="#F0C2F0"/>
<stop offset="1" stop-color="#9141AC"/>
</linearGradient>
</defs>
</svg>
